X: 16
T: Newcastle Hornpipe
T: Hornpipe, Bb
L: 1/16
M: 2/2
K: Bb
|: (3e2d2c2| B4B,4 (3d2c2B2 (3A2G2F2| E4g4 g4f2e2| d2f2B2d2 c2e2A2c2| B2b2a2g2 (3f2g2f2 (3e2d2c2| 
B2d2F2B2 (3d2c2B2 (3A2G2F2| E4g4 g4f2e2| d2f2B2d2 c2e2A2c2| B2b2f2d2 B4:| 
|: D2C2| B,2D2F2B2 d2f2b2a2| g2f2g2a2 g8| C2F2A2c2 f2g2a2g2| f2=e2f2g2 f4D2C2| 
B,2D2F2B2 d2f2b2a2| g2f2g2a2 g4g2b2| a2g2f2e2 d2c2B2A2| c4B4 B4:|
